X:1160
T:March,
T:W.S. Royals.
M:C|
L:1/8
Q:1/2=66
I: |: :| ::
Z:Jack Campin * www.campin.me.uk * 2009
K:G
D|:G2BG A2cA|B2dB G2B2|c2ec B2dB|ABAG GFED |
   G2BG A2cA|B2dB c2ed|cBAG D2e2|g2d2 B2G2:|
   gfge edcB|efge edcB|ca2c Bg2B|A2BG GFED |
   G2BG A2cA|BcdB c2ed|cBAG D2f2|g2d2 B2G2:|
<end>
<start>
